Default.style/guidepost.svg

<svg xmlns="http://www.w3.org/2000/svg" width="28" height="28"><path fill="#888" d="M14 .5c-.5 0-1 .5-1 1.5v26h2V2c0-1-.5-1.5-1-1.5ZM4 2 0 5l4 3h8V2H4Zm12 6v6h8l4-3-4-3h-8Z"/></svg>

<svg xmlns="http://www.w3.org/2000/svg" width="28" height="28" viewBox="0 0 28 28">
  <path fill="#888" d="M14,0.5 C13.5,0.5 13,1 13,2 L13,28 L15,28 L15,2 C15,1 14.5,0.5 14,0.5 Z M4,2 L0,5 L4,8 L12,8 L12,2 L4,2 Z M16,8 L16,14 L24,14 L28,11 L24,8 L16,8 Z"/>
</svg>
